22x22/apps/epiphany-browser.svg

<svg xmlns="http://www.w3.org/2000/svg" width="22" height="22" version="1">
 <rect style="opacity:0.2" width="20" height="20" x="1" y="1.5" rx="10" ry="10"/>
 <rect style="fill:#2869b6" width="20" height="20" x="1" y="1" rx="10" ry="10"/>
 <path style="opacity:0.2" d="m 11,1.500031 c -1.469303,0 -2.8589682,0.3203869 -4.1132812,0.8847656 L 8,3.500031 v 1.3339844 l 1.367188,1.6328125 h 0.666015 V 5.7988591 L 11,4.500031 V 3.8340154 L 12,3.1660466 V 1.5488591 C 11.671125,1.5164872 11.337665,1.500031 11,1.500031 Z m -7.1484375,3 C 2.2264055,6.1596497 1.1862195,8.3866361 1.03125,10.863312 l 3.3027344,2.970703 v -1 l -0.6679688,-0.667968 1,-1 H 5.3339844 L 6,11.834015 6.0214844,10.433625 7,9.500031 H 7.6660156 V 8.8340154 L 8.3339844,8.1660466 v -1 L 7.6210938,6.5215154 6,6.500031 V 7.8340154 H 5.3339844 L 4.6660156,7.1660466 V 6.500031 l 1,-1 h 1 V 5.1328435 L 6,4.500031 Z m 12.1484375,0 -1,1 v 0.6660156 h 1 V 5.8086248 h 0.666016 v 0.7128906 l -0.332032,0.3125 H 15 V 7.500031 h -1 v 1 h -1 v 1.033203 h 1.333984 V 8.9668279 h 1.332032 V 9.500031 l 0.667968,0.666016 h 0.332032 V 9.834015 L 16.333984,9.500031 V 8.9668279 H 17 l 1,1.1992191 h 1 v 0.333984 l -0.333984,0.333984 H 18 l 2.857422,2.285157 C 20.942966,12.590974 21,12.053121 21,11.500031 c 0,-2.7320754 -1.08759,-5.1986223 -2.851562,-7 h -1.814454 z m 2,6.333984 H 16 L 15.666016,10.500031 H 13.333984 L 12,11.834015 v 1.332032 l 1.333984,1.333984 h 0.699219 l 0.666016,0.666016 v 0.333984 l 0.333984,0.333984 v 2 l 1.917969,1.699219 C 17.729099,18.956901 18.419422,18.270684 19,17.496125 v -2.330078 l 1,-0.666016 V 13.166047 L 18,11.500031 Z M 5.3339844,13.500031 4.6660156,14.166047 v 1.667968 l 1.3554688,1.357422 -0.015625,2.972656 C 6.3272417,20.349168 6.6571381,20.518907 7,20.668 v -0.501953 l 1,-1 v -0.666016 l 1,-1 v -0.666016 l 1,-0.667968 V 15.132843 L 9.333984,14.500031 H 8 l -0.6660156,-1 z"/>
 <path style="fill:#659cdb" d="M 11,1 C 9.530697,1 8.1410318,1.3203869 6.8867188,1.8847656 L 8,3 v 1.3339844 l 1.367188,1.6328125 h 0.666015 V 5.2988281 L 11,4 V 3.3339844 L 12,2.6660156 V 1.0488281 C 11.671125,1.0164562 11.337665,1 11,1 Z M 3.8515625,4 C 2.2264055,5.6596187 1.1862195,7.8866051 1.03125,10.363281 l 3.3027344,2.970703 v -1 l -0.6679688,-0.667968 1,-1 H 5.3339844 L 6,11.333984 6.0214844,9.933594 7,9 H 7.6660156 V 8.3339844 L 8.3339844,7.6660156 v -1 L 7.6210938,6.0214844 6,6 V 7.3339844 H 5.3339844 L 4.6660156,6.6660156 V 6 l 1,-1 h 1 V 4.6328125 L 6,4 Z M 16,4 15,5 v 0.6660156 h 1 V 5.3085938 h 0.666016 v 0.7128906 l -0.332032,0.3125 H 15 V 7 h -1 v 1 h -1 v 1.033203 h 1.333984 V 8.4667969 h 1.332032 V 9 l 0.667968,0.666016 h 0.332032 V 9.333984 L 16.333984,9 V 8.4667969 H 17 l 1,1.1992191 h 1 V 10 l -0.333984,0.333984 H 18 l 2.857422,2.285157 C 20.942966,12.090943 21,11.55309 21,11 21,8.2679246 19.91241,5.8013777 18.148438,4 h -1.814454 z m 2,6.333984 H 16 L 15.666016,10 H 13.333984 L 12,11.333984 v 1.332032 L 13.333984,14 h 0.699219 l 0.666016,0.666016 V 15 l 0.333984,0.333984 v 2 l 1.917969,1.699219 C 17.729099,18.45687 18.419422,17.770653 19,16.996094 V 14.666016 L 20,14 V 12.666016 L 18,11 Z M 5.3339844,13 4.6660156,13.666016 v 1.667968 l 1.3554688,1.357422 -0.015625,2.972656 C 6.3272417,19.849137 6.6571381,20.018876 7,20.167969 v -0.501953 l 1,-1 V 18 l 1,-1 v -0.666016 l 1,-0.667968 V 14.632812 L 9.333984,14 H 8 L 7.3339844,13 Z"/>
 <path style="opacity:0.1;fill:#f4f4f7" d="M 11,1 C 5.46,1 0.99999998,5.46 0.99999998,11 c 0,0.08394 0.00382,0.166571 0.00586,0.25 C 1.1381952,5.8269315 5.543937,1.5 11,1.5 c 5.456063,0 9.861805,4.3269315 9.99414,9.75 C 20.996176,11.166571 21,11.083937 21,11 21,5.46 16.54,1 11,1 Z"/>
 <path style="opacity:0.2" d="m 7.5316014,10.500141 c -0.1010663,0.0024 -0.1979758,0.03991 -0.2733952,0.105875 L 0.74297068,15.78692 c -0.2704348,0.236199 -0.1355718,0.674394 0.2230331,0.724675 l 2.52633672,0.356684 -1.1840277,2.050679 c -0.2645959,0.458342 -0.107813,1.040821 0.3504804,1.305444 l 0.2538671,0.146991 c 0.4582933,0.264624 1.0407123,0.107825 1.305308,-0.350516 L 5.4472194,17.89105 7.2489556,19.351707 C 7.526333,19.577353 7.9464861,19.384277 7.946833,19.031 L 7.968417,10.9185 C 7.9691014,10.683354 7.7714756,10.494093 7.5315993,10.500141 Z"/>
 <path style="fill:#f4f4f7" d="m 7.5316014,10.000253 c -0.1010663,0.0024 -0.1979758,0.03991 -0.2733952,0.105875 l -6.51523552,5.180904 c -0.2704348,0.236199 -0.1355718,0.674394 0.2230331,0.724675 L 3.4923405,16.368391 2.3083128,18.41907 c -0.2645959,0.458342 -0.107813,1.040821 0.3504804,1.305444 l 0.2538671,0.146991 c 0.4582933,0.264624 1.0407123,0.107825 1.305308,-0.350516 l 1.2292511,-2.129827 1.8017362,1.460657 c 0.2773774,0.225646 0.6975305,0.03257 0.6978774,-0.320707 l 0.021584,-8.1125 C 7.9691014,10.183466 7.7714756,9.994205 7.5315993,10.000253 Z"/>
 <path style="opacity:0.2;fill:#f4f4f7" d="M 11,1 C 9.530697,1 8.1410317,1.3203869 6.8867188,1.8847656 l 0.359375,0.359375 C 8.40601,1.7741436 9.667543,1.5 11,1.5 c 0.337665,0 0.671125,0.016456 1,0.048828 v -0.5 C 11.671125,1.0164562 11.337665,1 11,1 Z M 3.8515625,4 C 2.2264055,5.6596187 1.1862195,7.8866053 1.03125,10.363281 l 0.048828,0.04492 C 1.3274416,8.1155356 2.3273124,6.056572 3.8515625,4.5 H 6 L 6.5253906,5 h 0.140625 V 4.6328125 L 6,4 Z M 16,4 15,5 v 0.5 l 1,-1 h 0.333984 1.814454 c 1.710769,1.7470467 2.77658,4.1220721 2.839843,6.755859 C 20.990959,11.170129 21,11.086454 21,11 21,8.2679246 19.91241,5.8013777 18.148438,4 H 16.333984 Z M 6,6 v 0.5 l 1.6210938,0.021484 0.7128906,0.6445312 v -0.5 L 7.6210938,6.0214844 Z m 10.666016,0.021484 -0.332032,0.3125 H 15 v 0.5 h 1.333984 l 0.332032,-0.3125 z M 4.6660156,6.6660156 v 0.5 L 5.3339844,7.8339844 H 6 v -0.5 H 5.3339844 Z M 14,7 v 0.5 h 1 V 7 Z m -1,1 v 0.5 h 1 V 8 Z m 3.333984,1 V 9.5 L 16.5,9.666016 h 0.166016 V 9.333984 Z m -3,1 L 12,11.333984 v 0.5 L 13.333984,10.5 h 2.332032 L 16,10.833984 h 2 v -0.5 H 16 L 15.666016,10 Z M 18,10.333984 l 0.625,0.5 h 0.04102 L 19,10.5 v -0.333984 h -0.166016 l -0.167968,0.167968 z M 18,11 v 0.5 l 2,1.666016 v -0.5 z m -14.0839844,0.916016 -0.25,0.25 0.6679688,0.667968 v -0.5 z M 5.3339844,13 4.6660156,13.666016 v 0.5 L 5.3339844,13.5 h 2 L 8,14.5 H 9.333984 L 10,15.132812 v -0.5 L 9.333984,14 H 8 L 7.3339844,13 Z m 0.6855468,4.189453 -0.013672,2.474609 c 7.569e-4,4.36e-4 0.0012,0.0015 0.00195,0.002 l 0.013672,-2.47461 z"/>
</svg>

<svg xmlns="http://www.w3.org/2000/svg" width="22" height="22" version="1"><rect style="opacity:.2" width="20" height="20" x="1" y="1.5" rx="10" ry="10"/><rect style="fill:#2869b6" width="20" height="20" x="1" y="1" rx="10" ry="10"/><path style="opacity:.2" d="M11 1.5c-1.47 0-2.859.32-4.113.885L8 3.5v1.334l1.367 1.633h.666v-.668L11 4.5v-.666l1-.668V1.549a10.204 10.204 0 0 0-1-.049zm-7.148 3a9.952 9.952 0 0 0-2.82 6.363l3.302 2.971v-1l-.668-.668 1-1h.668l.666.668.021-1.4L7 9.5h.666v-.666l.668-.668v-1l-.713-.644L6 6.5v1.334h-.666l-.668-.668V6.5l1-1h1v-.367L6 4.5zM16 4.5l-1 1v.666h1v-.357h.666v.713l-.332.312H15V7.5h-1v1h-1v1.033h1.334v-.566h1.332V9.5l.668.666h.332v-.332l-.332-.334v-.533H17l1 1.199h1v.334l-.334.334H18l2.857 2.285c.086-.528.143-1.066.143-1.619a9.964 9.964 0 0 0-2.852-7h-1.814zm2 6.334h-2l-.334-.334h-2.332L12 11.834v1.332l1.334 1.334h.7l.665.666v.334l.334.334v2l1.918 1.7A10 10 0 0 0 19 17.495v-2.33l1-.666v-1.334L18 11.5zM5.334 13.5l-.668.666v1.668l1.355 1.357-.015 2.973c.321.185.651.355.994.504v-.502l1-1V18.5l1-1v-.666l1-.668v-1.033l-.666-.633H8l-.666-1z"/><path style="fill:#659cdb" d="M11 1c-1.47 0-2.859.32-4.113.885L8 3v1.334l1.367 1.633h.666v-.668L11 4v-.666l1-.668V1.049A10.204 10.204 0 0 0 11 1zM3.852 4a9.952 9.952 0 0 0-2.82 6.363l3.302 2.971v-1l-.668-.668 1-1h.668l.666.668.021-1.4L7 9h.666v-.666l.668-.668v-1l-.713-.645L6 6v1.334h-.666l-.668-.668V6l1-1h1v-.367L6 4zM16 4l-1 1v.666h1v-.357h.666v.712l-.332.313H15V7h-1v1h-1v1.033h1.334v-.566h1.332V9l.668.666h.332v-.332L16.334 9v-.533H17l1 1.199h1V10l-.334.334H18l2.857 2.285c.086-.528.143-1.066.143-1.619a9.964 9.964 0 0 0-2.852-7h-1.814zm2 6.334h-2L15.666 10h-2.332L12 11.334v1.332L13.334 14h.7l.665.666V15l.334.334v2l1.918 1.7A10 10 0 0 0 19 16.995v-2.33L20 14v-1.334L18 11zM5.334 13l-.668.666v1.668l1.355 1.357-.015 2.973c.321.185.651.355.994.504v-.502l1-1V18l1-1v-.666l1-.668v-1.033L9.334 14H8l-.666-1z"/><path style="opacity:.1;fill:#f4f4f7" d="M11 1C5.46 1 1 5.46 1 11c0 .084.004.167.006.25A9.976 9.976 0 0 1 11 1.5a9.976 9.976 0 0 1 9.994 9.75c.002-.083.006-.166.006-.25 0-5.54-4.46-10-10-10z"/><path style="opacity:.2" d="M7.532 10.5a.43.43 0 0 0-.274.106l-6.515 5.18a.415.415 0 0 0 .223.726l2.526.356-1.184 2.051a.954.954 0 0 0 .35 1.305l.255.147a.954.954 0 0 0 1.305-.35l1.23-2.13 1.801 1.46c.277.226.697.033.698-.32l.021-8.112a.422.422 0 0 0-.436-.419z"/><path style="fill:#f4f4f7" d="M7.532 10a.43.43 0 0 0-.274.106L.743 15.287a.415.415 0 0 0 .223.725l2.526.356-1.184 2.051a.954.954 0 0 0 .35 1.306l.255.147a.954.954 0 0 0 1.305-.351l1.23-2.13 1.801 1.46c.277.226.697.033.698-.32l.021-8.112A.422.422 0 0 0 7.532 10z"/><path style="opacity:.2;fill:#f4f4f7" d="M11 1c-1.47 0-2.859.32-4.113.885l.36.36A9.961 9.961 0 0 1 12 1.548v-.5A10.205 10.205 0 0 0 11 1zM3.852 4a9.952 9.952 0 0 0-2.82 6.363l.048.045A9.94 9.94 0 0 1 3.852 4.5H6l.525.5h.141v-.367L6 4zM16 4l-1 1v.5l1-1h2.148a9.959 9.959 0 0 1 2.84 6.756c.003-.086.012-.17.012-.256a9.964 9.964 0 0 0-2.852-7h-1.814zM6 6v.5l1.621.021.713.645v-.5l-.713-.645zm10.666.021-.332.313H15v.5h1.334l.332-.313zm-12 .645v.5l.668.668H6v-.5h-.666zM14 7v.5h1V7zm-1 1v.5h1V8zm3.334 1v.5l.166.166h.166v-.332zm-3 1L12 11.334v.5l1.334-1.334h2.332l.334.334h2v-.5h-2L15.666 10zm4.666.334.625.5h.041L19 10.5v-.334h-.166l-.168.168zM18 11v.5l2 1.666v-.5zm-14.084.916-.25.25.668.668v-.5zM5.334 13l-.668.666v.5l.668-.666h2l.666 1h1.334l.666.633v-.5L9.334 14H8l-.666-1zm.686 4.19-.014 2.474.002.002.013-2.475z"/></svg>
